X:1
T:James Gibb editions
T:The day is gently sinking to a close - Barnby
%%score [ ( 1 2 ) ( 3 4 ) ]
L:1/8
Q:1/4=88
M:4/4
K:Eb
V:1 treble nm="Midi_74"
V:2 treble 
V:3 bass nm="Midi_74"
V:4 bass 
V:1
"^Smooth""^Christopher Wordsworth\n(1807-85)""^10 10. 10 10. 10 10""^The day is gently sinking to a close""^Joseph Barnby\n(1838-96)" B2 | %1
 G2 B2 A2 G2 | F2 E2 E2 D2 | E6 || F2 | G2 =A2 B2 c2 | d2 B2 B2 =A2 | B6 || B2 | c2 d2 e2 G2 | %10
 A2 c2 B2 A2 | G4 ||[M:4/4] B4 | c2 _d2 c2 B2 | A2 B2 G2 A2 | F8 || %16
[M:3/4]"^Slower."[Q:1/4=69] G2 F2 E2 | B4 B2 | AG F2"^1" =E2 | c6 || d2 d2 f2 | e4 c2 | BG B2 D2 | %23
 E6 || A6 | G6 |] %26
V:2
 F2 | E2 _D2 C2 B,2 | D2 E2 C2 B,2 | B,6 || B,2 | B,2 E2 D2 G2 | F2 F2 E2 E2 | D6 || F2 | %9
 G2 F2 E2 E2 | F2 E2 D2 F2 | E4 ||[M:4/4] E4 | E2- F2 E2 _D2 | C2 F2 E2 F2 | D8 || %16
[M:3/4] E2 D2 E2 | E4 E2 | E_D C2 C2 | C6 || C2 =B,2 D2 | E4 E2 | EE D2 B,2 | B,6 || E6 | E6 |] %26
V:3
"^oJ" B,2 | B,2 G,2 A,2 B,2 | A,2 G,2 F,2 F,2 | G,6 || B,2 | B,2 C2 B,2 B,2 | B,2 D2 C2 C2 | B,6 || %8
 D2 | E2 DC B,2 C2 | C2 A,2 F,2 B,2 | B,4 || %12
[M:4/4]"^1 The day is gently sinking to a close:\nFainter, and yet more faint the sunlight grows.\nO Brightness of Thy Father’s glory, Thou\nEternal Light of Light, be with us now:\nWhere Thou art present, darkness cannot be;\nMidnight is glorious noon, O Lord, with Thee.\n\n2 Our changeful lives are ebbing to an end,\nOnward to darkness and to death we tend;\nO Conqueror of the grave, be Thou our Guide,\nBe Thou our Light in death’s dark eventide;\nThen in our mortal hour will be no gloom,\nNo sting in death, no terror in the tomb.\n\n3 Thou, Who in darkness walking, didst appear\nUpon the waves and Thy disciples cheer,\nCome, Lord, in lonesome days, when storms assail,\nAnd earthly hopes and human succours fail;\nWhen all is dark, may we behold Thee nigh,\nAnd hear Thy voice, \"Fear not, for it is I.\"\n\n4 The weary world is mouldering to decay,\nIts glories wane, its pageants fade away:\nIn that last sunset, when the stars shall fall,\nMay we arise, awakened by Thy call,\nWith Thee, O Lord, for ever to abide\nIn that blest day which has no eventide." G,4 | %13
 A,2 A,2 A,2 F,2 | F,2 B,2 B,2 C2 | B,8 ||[M:3/4] B,2 A,2 G,2 | B,4 _D2 | CB, A,2 G,2 | F,6 || %20
 F,2 F,2 G,2 | G,4 A,2 | G,B, A,2 A,2 | G,6 || C6 | B,6 |] %26
V:4
 D,2 | E,2 E,2 E,2 E,2 | B,,2 C,2 A,,2 B,,2 | E,6 || D,2 | E,2 C,2 G,2 =E,2 | F,2 F,2 F,2 F,2 | %7
 B,,6 || B,2 | B,2 A,2 G,2 C,2 | F,2 F,2 B,,2 D,2- | E,4 ||[M:4/4] E,4 | A,2 _D,2 A,,2 B,,2 | %14
 F,2 !courtesy!=D,2 E,2 A,,2 | B,,8 ||[M:3/4] E,2 B,,2 C,2 | G,,4 E,2 | A,,B,, C,2 B,,2 | A,,6 || %20
 A,,2 G,,2 =B,,2 | C,4 A,,2 | B,,B,, B,,2 B,,2 | E,6 || A,,6 | E,6 |] %26

